X: 8067
T: Connolly's
R: jig
M: 6/8
K: Edorian
B,2E EFA|BAF d3|B,2E EFA|BAG FED|
B,2E EFA|BAF d2B|ABc dcd|BAG FED:|
|:B2e efg|fef d2A|B2e efg|fef dBA|
B2e efg|fdB dag|fed B/c/dB|Afd AFD:|
|:EFE e2d|BAF d2F|EFE e2d|BAG FED|
EFE e2d|e/g/fe dfa|gfe dcd|BAG FED:|

